X: 40341
T: Tom Byrne's
R: jig
M: 6/8
K: Gmajor
|:BAG d2 B|cAF DFA|GDB, CDE|DB,G, A,2 A|
BAG d2B|cAF DFA|GDB, CDE|1 DCA, G,2 c:|2 DCA, G,3||
|:GBd gag|fdc AFD|DFA dcA|DFA G2 z|
GBd gag|fdc AFD|dcA dcA|dcA G3:|

